X: 42306
T: Wedding O' Blyth, The
R: slip jig
M: 9/8
K: Gmajor
|:D|GAB c2A Bcd|e2c dBG F2D|GAB c2A cd=f|e2c dBG G2:|
d|gag fgf e/f/ge|dge dBG A2d|gag fgf e/f/ge|d<ge dBG G2d|
gag fgf e/f/ge|dge dBG A2D|GAB c2A cd=f|e2c dBG G2||

